X:1345
T:When I was a Prentice in my youth
A:Wyresdale, Lancashire
B:E and J Winder, 1835-41
L:1/8
M:6/8
O:England
Z:Richard Robinson 
%%TUNEURL: http://www.leeds.ac.uk/music/Info/RRTuneBk/gettune/00001210.html
%%ID:00001210
K:G
G | \
GBd e2d | cBA G2G | GBd ecB | (Ac)d e3 ::
g2e d>ed | (de)f gec | c(BA) (GA)G | (GA)G BGE | \
EFG A/B/cB | AGA F3 :|
